X:1
T:Title
%%score { ( 1 3 5 ) | ( 2 4 ) }
L:1/8
M:6/8
K:Eb
V:1 treble nm="Grand Piano"
V:3 treble 
V:5 treble 
V:2 bass 
V:4 bass 
V:1
 z3 z2[Q:1/4=95] [GB] | [EG]2 [GB] [Ge]2 [GB] | [Ac][GB][_G=A] [=GB]2 [B,EG] | %3
 [G,E]2 [B,DF] [B,EG]2 [B,GB] |[M:5/8] B z z z2 |[M:1/8] [B,DB] |[M:3/4] [B,EG]2 [EGB] [Ge]2 [GB] | %7
 [Ac][GB] [_G=A] [=GB]2 [Ge] | ed cf ec | [B,DB]6 | [EGB]3 [DAB] [EAc][FAd] | [EGe]6 | e4 z2 | %13
 [EGB]2 [B,EG] .[EGB]3 | [DAB][DAB] [DAB][AB] [Ac][Ad] | [Ge]6 | e4 z2 | [EGB]2 [B,EG] .[EGB]3 | %18
 [CAc][CAf] [CAe][Ad] [Ac][Ad] | e6- | %20
 e6-[Q:1/4=92][Q:1/4=89][Q:1/4=86][Q:1/4=83][Q:1/4=80][Q:1/4=77][Q:1/4=74] |[M:5/8] e-e- e3 |] %22
V:2
 z3 z2 [E,E] | [E,B,]2 [E,E] [E,B,]2 [E,E] | [E,E][E,E][E,E] [E,E]2 E, | E,2 B,, E,2 E, | %4
[M:5/8] z AE, B,,2 |[M:1/8] B,, |[M:3/4] E,2 E, [E,B,]2 [E,E] | [E,E]2 [E,E] [E,E]2 [E,B,] | %8
 [F,=A,F][F,A,F] [F,A,F] [F,A,F]2 [F,A,E] | B,,4 C,D, | E,3 B,, B,,B,, | E,6 | %12
 [A,CE][A,C] [A,C] [A,C]2 A, | E,2 E, .E,3 | B,,B,, B,,[B,,B,] [B,,B,][B,,B,] | [E,B,]6 | %16
 [A,CE][A,C] [A,C] [A,C]2 A, | E,2 E, .E,3 | A,,A,, A,,[B,,B,] [B,,B,][B,,B,] | B,3 G, A,=A, | %20
 B,3 C B,=A, |[M:5/8] B,-B,- B,3 |] %22
V:3
 x6 | x6 | x6 | x6 |[M:5/8] [B,F]2 [B,EG] [B,DF]2 |[M:1/8] x |[M:3/4] x6 | x6 | x6 | x6 | x6 | x6 | %12
 z E .E2 d[EAc] | x6 | x6 | x6 | z E .E2 d[EAc] | x6 | x6 | G3 E F_G | G3 A G_G |[M:5/8] G-G- G3 |] %22
V:4
 x6 | x6 | x6 | x6 |[M:5/8] D,2 z z2 |[M:1/8] x |[M:3/4] x6 | x6 | x6 | z2 z .B,,3 | x6 | x6 | x6 | %13
 x6 | x6 | x6 | x6 | x6 | x6 | E,6- | E,6- |[M:5/8] E,-E,- E,3 |] %22
V:5
 x6 | x6 | x6 | x6 |[M:5/8] x5 |[M:1/8] x |[M:3/4] x6 | x6 | x6 | x6 | x6 | x6 | z2 z .E3 | x6 | %14
 x6 | x6 | z2 z .E3 | x6 | x6 | x6 | x6 |[M:5/8] x5 |] %22

